static/assets/img/icons/theme/design/cap-1.svg

<svg height="24" viewBox="0 0 24 24" width="24" xmlns="http://www.w3.org/2000/svg"><g fill="none" fill-rule="evenodd"><path d="m0 0h24v24h-24z" opacity="0"/><g fill="#000"><path d="m13 19v-3.1000181c2.2822403-.4632703 4-2.481024 4-4.8999819 0-2.76142375-2.2385763-5-5-5-2.76142375 0-5 2.23857625-5 5 0 2.4189579 1.71775968 4.4367116 4 4.8999819v3.1000181h-7v-15h16v15z"/><circle cx="12" cy="11" opacity=".3" r="2"/></g></g></svg>

<svg width="24px" height="24px" viewBox="0 0 24 24" version="1.1" xmlns="http://www.w3.org/2000/svg" xmlns:xlink="http://www.w3.org/1999/xlink">
    <title>Icon For Cap-1</title>
    <g stroke="none" stroke-width="1" fill="none" fill-rule="evenodd">
        <rect opacity="0" x="0" y="0" width="24" height="24"></rect>
        <path d="M13,19 L13,15.8999819 C15.2822403,15.4367116 17,13.4189579 17,11 C17,8.23857625 14.7614237,6 12,6 C9.23857625,6 7,8.23857625 7,11 C7,13.4189579 8.71775968,15.4367116 11,15.8999819 L11,19 L4,19 L4,4 L20,4 L20,19 L13,19 Z" fill="#000000"></path>
        <circle fill="#000000" opacity="0.3" cx="12" cy="11" r="2"></circle>
    </g>
</svg>
